src/public/Whatsapp.svg

<svg width="40" height="38" viewBox="0 0 40 38" fill="none" xmlns="http://www.w3.org/2000/svg">
<path d="M34.1708 5.5291C32.328 3.76956 30.133 2.37447 27.7138 1.42521C25.2947 0.475937 22.6997 -0.00851219 20.0804 0.000113182C9.10553 0.000113182 0.160804 8.45509 0.160804 18.8291C0.160804 22.154 1.08543 25.384 2.81407 28.234L0 38L10.5528 35.378C13.4673 36.879 16.7437 37.677 20.0804 37.677C31.0553 37.677 40 29.222 40 18.8481C40 13.8131 37.9296 9.08209 34.1708 5.5291ZM20.0804 34.485C17.1055 34.485 14.191 33.725 11.6382 32.3L11.0352 31.958L4.76382 33.516L6.43216 27.74L6.03015 27.151C4.37738 24.6563 3.49978 21.7726 3.49749 18.8291C3.49749 10.2031 10.9347 3.1731 20.0603 3.1731C24.4824 3.1731 28.6432 4.8071 31.7588 7.77109C33.3015 9.22262 34.524 10.9491 35.3556 12.8506C36.1871 14.752 36.6111 16.7906 36.603 18.8481C36.6432 27.474 29.206 34.485 20.0804 34.485ZM29.1658 22.781C28.6633 22.553 26.2111 21.4131 25.7688 21.2421C25.3065 21.0901 24.9849 21.0141 24.6432 21.47C24.3015 21.945 23.3568 23.009 23.0754 23.313C22.794 23.636 22.4925 23.674 21.9899 23.427C21.4874 23.199 19.8794 22.686 17.9899 21.0901C16.5025 19.8361 15.5176 18.2971 15.2161 17.8221C14.9347 17.3471 15.1759 17.1001 15.4372 16.8531C15.6583 16.6441 15.9397 16.3021 16.1809 16.0361C16.4221 15.7701 16.5226 15.5611 16.6834 15.2571C16.8442 14.9341 16.7638 14.6681 16.6432 14.4401C16.5226 14.2121 15.5176 11.8941 15.1156 10.9441C14.7136 10.0321 14.2915 10.1461 13.9899 10.1271H13.0251C12.6834 10.1271 12.1608 10.2411 11.6985 10.7161C11.2563 11.1911 9.96985 12.3311 9.96985 14.6491C9.96985 16.9671 11.7588 19.2091 12 19.5131C12.2412 19.8361 15.5176 24.586 20.5025 26.619C21.6884 27.113 22.6131 27.398 23.3367 27.607C24.5226 27.968 25.608 27.911 26.4724 27.797C27.4372 27.664 29.4271 26.657 29.8291 25.555C30.2513 24.453 30.2513 23.522 30.1106 23.313C29.9698 23.104 29.6683 23.009 29.1658 22.781Z" fill="white"/>
</svg>

<svg xmlns="http://www.w3.org/2000/svg" width="40" height="38" fill="none" xmlns:v="https://vecta.io/nano"><path d="M34.171 5.529c-1.843-1.76-4.038-3.155-6.457-4.104S22.7-.009 20.08 0C9.106 0 .161 8.455.161 18.829c0 3.325.925 6.555 2.653 9.405L0 38l10.553-2.622c2.915 1.501 6.191 2.299 9.528 2.299 10.975 0 19.92-8.455 19.92-18.829 0-5.035-2.07-9.766-5.829-13.319zM20.08 34.485c-2.975 0-5.889-.76-8.442-2.185l-.603-.342-6.271 1.558 1.668-5.776-.402-.589c-1.653-2.495-2.53-5.378-2.533-8.322 0-8.626 7.437-15.656 16.563-15.656 4.422 0 8.583 1.634 11.699 4.598 1.543 1.452 2.765 3.178 3.597 5.08a14.81 14.81 0 0 1 1.247 5.997c.04 8.626-7.397 15.637-16.523 15.637zm9.085-11.704l-3.397-1.539c-.462-.152-.784-.228-1.126.228-.342.475-1.286 1.539-1.568 1.843-.281.323-.583.361-1.085.114-.502-.228-2.11-.741-4-2.337-1.487-1.254-2.472-2.793-2.774-3.268-.281-.475-.04-.722.221-.969.221-.209.502-.551.744-.817s.342-.475.502-.779c.161-.323.08-.589-.04-.817s-1.126-2.546-1.528-3.496c-.402-.912-.824-.798-1.126-.817h-.965c-.342 0-.864.114-1.327.589-.442.475-1.729 1.615-1.729 3.933s1.789 4.56 2.03 4.864c.241.323 3.518 5.073 8.503 7.106a25.25 25.25 0 0 0 2.834.988c1.186.361 2.271.304 3.136.19.965-.133 2.955-1.14 3.357-2.242.422-1.102.422-2.033.282-2.242s-.442-.304-.945-.532z" fill="#fff"/></svg>
